X: 1613
T: Anna's Palindrome
R: jig
M: 6/8
K: Edorian
A3|:EAB Ege|ffd ABd|eed ABd|ABG FED|
DEF GBA|dBA dee|dBA dff|egE BAE:|
|:AzB AGF|EFF GFE|EFG GFE|DdA B2A|
AB2 AdD|EFG GFE|EFG FFE|FGA BzA:|
"Übergang:"AzB AGF|EFF GFE|EFG GFE|DdA B2A|
AB2 AdD|EFG GFE|EFG FFE|FGA BdB|c6||

